X:21
C:Page 10
T:Maggy Lowther. MBe.21
S:Matthew Betham MS, Towcett Cumbria, 1815
O:England;Cumbria;Towcett
Z:VMP – Hugh Taylor, 2012
T:Maggie Lauder,aka. MBe.21
T:Maggie Laider,aka. MBe.21
M:C
L:1/8
Q:1/4=60
R:Air
N:Someone has written in a different hand “Lauder” after the title.
N:The Lowther family is the local landowner, but the title is probably a corruption of Lauder.
N:It appears in Rev. Harrison as ‘Maggie Lawder with Variations’.
K:D
d>edf d>edf|”^NB”e>f g/f/e/d/ c2 e”qu’s in MS”f/g/|fddd “^NB”d>edg|”^NB”a>b “Qu’s in MS”a/b/a/g/ f2 a2|
gagb fgfa|”^NB”e>f g/f/e/d/ c2 e2|d/c/B/A/ B/A/G/F/ G/F/E/D/ Eg|fg/a/ ef d2 D2:|

